X:1
T:Charlie Brown
T:Charlie Brown
T:Mike Stoller
T:Jerry Leiber
T:Coasters
C:Mike Stoller
Z:All Rights Reserved
L:1/8
Q:1/4=120
M:4/4
K:C
V:1 treble nm="Piano" snm="Pno."
%%MIDI program 0
%%MIDI control 7 100
%%MIDI control 10 64
V:1
|:"C7""^120" G2 GF E2 C2 | G2 (GF) E2 CC | GGGF EEGG | _BAGF EC"^CHORUS"FF |"F7" F4- F2 FF | %5
w: 1.~Fe~ fe~ * fi~ fi~|fo~ fo~ * fum~ * *|I~ * smell * smoke~ * in~ the~|au- di- tor- i- um~ * Char- lie~|Brown,~ * Char- lie~|
w: 2.~him on his knees, I|know that's * him play- in'|se- ven come e- le- vin down *|in the boy's * gym * * *||
w: 3.~Walks in the class room|cool and * slow. * *|Who * called the Eng * lish *|teach- er "Dad- dy- O" * * *||
 F4- F2 FF |"C" E4- EE"F"FF |"C7" E4- E2 G2 |"G7" BB B2 B2- B2 |"F7" AAAA A2- A2 | %10
w: Brown~ * He's~ a~|clown,~ * that~ Char- lie~|Brown~ * He's~|gon- na~ get~ caught,~ *|just~ you~ wait~ and~ see~ *|
w: |||||
w: |||||
"C7" E2"^tacit" EE EEEE!dacoda! |1 EE E2 E2 E2 :|2 EE E2 E2 z2 ||"F7" F2 FF FFFF | F4- F2- F2 | %15
w: (Why's~ ev- ery bo- dy~ al- ways~|pick- in'~ on~ me?)~ That's|pick- in'~ on~ me?)~|Who's~ al- ways~ writ- ing~ on~ the~|wall?~ * *|
w: |||||
w: |||||
"Eb7" ^D2 DD DD_EE | _E4- E2- E2 |"F7" F2 FF FF F2 | F4- F2 F2 |"G7" G2 F2 G2 G2 | G6 G2!D.C.! :| %21
w: Who's~ al- ways~ goof- in'~ in~ the~|hall?~ * *|Who's~ al- ways~ throw- in'~ spit~|balls?~ * Yeah,|who? (Who,~ me?)~ Yeah,~|you! He|
w: ||||||
w: ||||||
O EE E2 E2 G2 |"G7" BB B2 B2- B2 |"F7" AAAA A2- A2 |"C7" E2"^tacit" EE EEEE | EE E2 E2 z2!fine! | %26
w: pick- in'~ on~ me?)~ He's~|gon- na~ get~ caught,~ *|just~ you~ wait~ and~ see~ *|(Why's~ ev- ery bo- dy~ al- ways~|pick- in'~ on~ me?)~|
w: |||||
w: |||||

